X:6005
T:Shield's Fair. JMT050
O:england
M:4/4
L:1/8
Q:210
S:J.Moore,Tyneside,1841.(37)
R:Reel
A:Northumbria
H:184
K:A
(e/f/g)|a2Ac e-cAc|d2c2c2eg|a2Ac e-cAc|c2B2B2)e/f/g)|
a2Ac e-cAc|d2c2f2fe|d-cBA G-Bed|c2A2A2:|
|:BA|G-EEc B-EEc|B-EEcd2dc|c-AAc d-BBd|e-ccef2fd|
c-aac B-ggB|A-cec f2fe|d-cBA G-Bed|c2A2A2:|]


